X:5066
T:Nettle Champ
M:2/4
R:Polka
L:1/8
Q:220
C:Aidan Crossey
K:G
|:B>c dB|c>d ec|B>c dB|A/B/A/G/ FD|
B>c dB|c>d ec|B/A/G/B/ A/G/F/A/|GB G2:||
|:B>c dB|c>d ef|g/f/e/d/ e/d/c/B/|d/B/A/G/ A2|
B>c dB|c>d ef|g/f/e/d/ e/d/c/B/|FA G2:||
